icon-themes/sifr_svg/cmd/lc_acceptalltrackedchanges.svg

<svg viewBox="0 0 24 24" xmlns="http://www.w3.org/2000/svg"><g fill="#555753"><path d="m3 2v21h12.568359l-2.048828-2h-8.519531v-17h8v5h5v1.435547l2-2.1718751v-.2636719l-6-6zm3 4v2h4v-2zm16.523438 2-5.523438 6-2.681641-2.490234-1.318359 1.585937 4 3.904297 7-7.5761719zm-16.523438 2v2h4v-2zm0 4v2h2v-2zm16.523438 0-5.523438 6-2.681641-2.490234-1.318359 1.585937 4 3.904297 7-7.576172z"/><path d="m10 14v2h4.544922l-2.050781-2zm-4 4v2h6v-2z" opacity=".35"/></g></svg>

<svg xmlns="http://www.w3.org/2000/svg" viewBox="0 0 24 24">
  <path
     style="fill:#555753"
     d="M 3 2 L 3 23 L 15.568359 23 L 13.519531 21 L 5 21 L 5 4 L 13 4 L 13 9 L 18 9 L 18 10.435547 L 20 8.2636719 L 20 8 L 14 2 L 3 2 z M 6 6 L 6 8 L 10 8 L 10 6 L 6 6 z M 22.523438 8 L 17 14 L 14.318359 11.509766 L 13 13.095703 L 17 17 L 24 9.4238281 L 22.523438 8 z M 6 10 L 6 12 L 10 12 L 10 10 L 6 10 z M 6 14 L 6 16 L 8 16 L 8 14 L 6 14 z M 22.523438 14 L 17 20 L 14.318359 17.509766 L 13 19.095703 L 17 23 L 24 15.423828 L 22.523438 14 z "
     />
  <path
     style="opacity:0.35;fill:#555753"
     d="M 10 14 L 10 16 L 14.544922 16 L 12.494141 14 L 10 14 z M 6 18 L 6 20 L 12 20 L 12 18 L 6 18 z "
     />
</svg>
